svgs/duotone/car-bump.svg

<svg xmlns="http://www.w3.org/2000/svg" viewBox="0 0 576 512"><!--! Font Awesome Pro 6.0.0-alpha3 by @fontawesome - https://fontawesome.com License - https://fontawesome.com/license (Commercial License) --><defs><style>.fa-secondary{opacity:.4}</style></defs><path class="fa-primary" d="M139.9 417.1l278.2-115.2l17.29 41.73c6.359 15.36 23.98 22.66 39.34 16.29l27.82-11.52c15.37-6.363 22.66-23.98 16.3-39.34L449.7 142.1c-9.824-23.73-33.07-37.66-57.3-36.1l-64.16-73.98C302.7 1.777 261.3-8 225.4 6.881L67.52 72.28C31.59 87.16 9.227 123.4 11.98 162.1l6.941 97.68c-17.59 16.66-24.18 42.95-14.35 66.68l69.14 166.9c6.363 15.36 23.98 22.66 39.34 16.29l27.82-11.52c15.36-6.363 22.66-23.98 16.3-39.34L139.9 417.1zM366.2 176.7c15.37-6.363 32.98 .9316 39.34 16.29c6.363 15.36-.9336 32.98-16.3 39.34c-15.36 6.363-32.98-.9336-39.34-16.29C343.6 200.7 350.9 183.1 366.2 176.7zM90.57 127.9L248.4 62.52c11.99-4.967 25.77-1.719 34.27 8.09l48.16 55.54l-253.6 105.1l-5.211-73.33C71.13 144.9 78.57 132.9 90.57 127.9zM111.1 347.6c-15.36 6.363-32.98-.9336-39.34-16.29C65.37 315.9 72.66 298.3 88.02 291.9c15.37-6.363 32.98 .9316 39.34 16.29S126.4 341.2 111.1 347.6z"/><path class="fa-secondary" d="M575.6 492.7C578.1 502.6 568.9 512 556.8 512h-185.6c-11.97 0-21.16-9.375-18.83-19.25C363 449 408.9 416 464.1 416C519.1 416 565.1 448.1 575.6 492.7z"/></svg>

<svg xmlns="http://www.w3.org/2000/svg" viewBox="0 0 576 512"><!-- Font Awesome Pro 6.0.0-alpha2 by @fontawesome - https://fontawesome.com License - https://fontawesome.com/license (Commercial License) --><defs><style>.fa-secondary{opacity:.4}</style></defs><path d="M575.591 492.75C578.072 502.625 568.872 512 556.755 512H371.193C359.224 512 350.029 502.625 352.365 492.75C363.021 449 408.865 416 464.052 416C519.091 416 565.079 449 575.591 492.75Z" class="fa-secondary"/><path d="M139.879 417.107L418.067 301.879L435.352 343.607C441.711 358.969 459.328 366.266 474.692 359.902L502.508 348.379C517.875 342.016 525.172 324.4 518.805 309.039L449.668 142.127C439.844 118.4 416.598 104.469 392.371 105.129L328.211 31.15C302.735 1.777 261.324 -8 225.399 6.881L67.52 72.275C31.594 87.156 9.227 123.352 11.981 162.139L18.922 259.814C1.328 276.479 -5.258 302.768 4.571 326.492L73.707 493.404C80.071 508.768 97.688 516.062 113.047 509.699L140.867 498.178C156.231 491.814 163.528 474.199 157.164 458.836L139.879 417.107ZM366.211 176.695C381.578 170.332 399.188 177.627 405.555 192.99C411.918 208.354 404.621 225.969 389.258 232.332C373.899 238.695 356.281 231.398 349.918 216.037C343.555 200.672 350.852 183.059 366.211 176.695ZM90.567 127.914L248.446 62.518C260.438 57.551 274.211 60.799 282.719 70.607L330.883 126.145L77.266 231.199L72.055 157.867C71.129 144.92 78.571 132.881 90.567 127.914ZM111.071 347.561C95.711 353.924 78.094 346.627 71.731 331.266C65.367 315.9 72.664 298.287 88.024 291.924C103.391 285.561 121.004 292.855 127.367 308.219S126.438 341.197 111.071 347.561Z" class="fa-primary"/></svg>
